X:26
T:Slopes of Sliabh Luachra, The
M:6/8
L:1/8
S:Cathy Sky
R:Jig
Z:Perry Haaland
K:D
|:BAF ~E3|FAF EFA|BAF EFA|B2A Bcd|
BAF ~E3|FEF DFA|d2f edc|1B2A Bcd:|2B2A BcA|:
dcd fed|cAc ecA|dcd fed|fdf fga|
dcd fed|cAc ecA|1dfd cec|B2A BcA:|
|1dcB cBA|B2A Bcd||
